svgs/sharp-solid/game-console-handheld.svg

<svg xmlns="http://www.w3.org/2000/svg" viewBox="0 0 384 512"><!--! Font Awesome Pro 6.6.0 by @fontawesome - https://fontawesome.com License - https://fontawesome.com/license (Commercial License) Copyright 2024 Fonticons, Inc. --><path d="M0 0L384 0l0 512L0 512 0 0zM96 64l0 160 192 0 0-160L96 64zM232 384a24 24 0 1 0 0-48 24 24 0 1 0 0 48zm88-72a24 24 0 1 0 -48 0 24 24 0 1 0 48 0zM96 288l0 32-32 0 0 32 32 0 0 32 32 0 0-32 32 0 0-32-32 0 0-32-32 0z"/></svg>

<svg xmlns="http://www.w3.org/2000/svg" viewBox="0 0 384 512"><!--! Font Awesome Pro 6.4.2 by @fontawesome - https://fontawesome.com License - https://fontawesome.com/license (Commercial License) Copyright 2023 Fonticons, Inc. --><path d="M0 0H384V512H0V0zM96 64V224H288V64H96zM232 384a24 24 0 1 0 0-48 24 24 0 1 0 0 48zm88-72a24 24 0 1 0 -48 0 24 24 0 1 0 48 0zM96 288v32H64v32H96v32h32V352h32V320H128V288H96z"/></svg>
